icons/yii/yii-plain.svg

<svg xmlns="http://www.w3.org/2000/svg" viewBox="0 0 128 128"><path d="M89.0234 81.3656C88.1594 69.964 84.4823 62.5736 82.6916 58.3851C80.9016 54.1973 78.1496 50.2771 78.1479 50.2832C78.1426 50.3011 75.6701 63.6253 71.2245 73.2655C70.4824 74.8757 69.497 76.8856 68.5024 78.5045L68.5028 78.5047C65.4335 83.9232 60.9807 89.107 58.3261 94.3614C55.6943 99.5688 55.2059 104.726 55.4509 110.59C55.6978 116.486 57.0596 122.268 58.3672 128C63.2968 126.937 67.5877 125.117 71.2992 122.79C81.0672 116.666 86.9695 106.872 88.6469 96.3192C88.6469 96.3192 88.7287 95.8907 88.765 95.368C89.5216 87.2125 89.2714 84.6394 89.0234 81.3656Z M89.0235 81.3656C88.1595 69.964 84.4824 62.5736 82.6916 58.3851C80.9017 54.1973 78.1497 50.2771 78.148 50.2832C78.148 50.2832 78.1473 50.2859 78.1473 50.2861C78.1475 50.2843 78.148 50.2824 78.148 50.2824L77.491 49.3056C63.0864 29.0848 35.4606 18.9889 12.1198 28.3462C10.996 42.5197 17.5672 66.9069 41.5398 73.7089C51.2313 76.6904 58.992 75.9174 68.5032 78.5035C68.5027 78.5038 68.5027 78.5041 68.5024 78.5043C68.5024 78.5043 78.1702 81.8736 83.7945 86.9264C86.3246 89.1987 88.8579 92.1889 88.7307 95.7457C89.5321 87.2808 89.2755 84.6912 89.0235 81.3656Z M78.5554 38.417C75.1492 28.4518 76.5927 21.7744 82.824 12.4816C85.796 8.04784 90.9277 2.90496 95.425 0C113.57 11.3707 120.28 32.5502 113.607 52.22C108.75 66.532 104.193 72.5328 92.6722 87.2584C94.0151 71.4874 88.4647 60.5542 83.0148 48.4054C81.628 45.3146 79.71 41.7957 78.5554 38.417Z M88.731 95.7457C88.8582 92.1889 86.3249 89.1987 83.7946 86.9264C78.1703 81.8737 68.5028 78.5045 68.5028 78.5045C69.4975 76.8856 70.4828 74.8755 71.2247 73.2653C75.6705 63.6249 78.143 50.3011 78.1482 50.283C78.15 50.2769 80.9018 54.1973 82.6919 58.3849C84.4828 62.5736 88.1599 69.9638 89.0238 81.3654C89.2754 84.691 89.5321 87.2808 88.731 95.7457Z"/></svg>

<svg xmlns="http://www.w3.org/2000/svg" viewBox="0 0 128 128"><path d="M89.023 81.366c-.864-11.402-4.54-18.792-6.331-22.98-1.79-4.189-4.542-8.109-4.544-8.103-.005.018-2.478 13.342-6.923 22.983-.743 1.61-1.728 3.62-2.723 5.238-3.069 5.42-7.521 10.603-10.176 15.857-2.632 5.208-3.12 10.365-2.875 16.229.247 5.896 1.609 11.678 2.916 17.41 4.93-1.063 9.22-2.883 12.932-5.21 9.768-6.124 15.67-15.918 17.348-26.47 0 0 .082-.43.118-.952.757-8.155.506-10.729.258-14.002Zm0 0c-.864-11.402-4.54-18.792-6.331-22.98-1.79-4.189-4.542-8.109-4.544-8.103v.003-.004l-.657-.976c-14.405-20.221-42.03-30.317-65.371-20.96-1.124 14.174 5.447 38.56 29.42 45.363 9.691 2.981 17.452 2.208 26.963 4.794v.001s9.667 3.37 15.291 8.422c2.53 2.273 5.064 5.263 4.937 8.82.801-8.465.544-11.055.293-14.38ZM78.555 38.417c-3.406-9.965-1.962-16.643 4.269-25.935C85.796 8.048 90.928 2.905 95.425 0c18.145 11.37 24.855 32.55 18.182 52.22-4.857 14.312-9.414 20.313-20.935 35.038 1.343-15.77-4.207-26.704-9.657-38.853-1.387-3.09-3.305-6.61-4.46-9.988Zm10.176 57.329c.127-3.557-2.406-6.547-4.936-8.82-5.625-5.052-15.292-8.422-15.292-8.422.995-1.618 1.98-3.629 2.722-5.239 4.446-9.64 6.918-22.964 6.923-22.982.002-.006 2.754 3.914 4.544 8.102 1.79 4.189 5.468 11.579 6.332 22.98.251 3.326.508 5.916-.293 14.38Z"/></svg>
